X:9
T:Embanner bras ar binijenn
T:Sant Yann
C:Guillou
M:3/8
L:1/8
%%deco rit 6 crdc 20 2 24 rit...
K:Fm
C|"Fam"F2G|A2B|"Do"A2G|"Fam"F2c|"Do"c2B|"Fam"A2F|"Sol"G2A|"Do"G2c|
w:Em-|ban-ner|bras ar|bi-ni-|jenn, Hi-|rio se-|laou-it|hor pe-|denn, Sant|
Hc2 C|"Fam"F2G|A2B|A2"Do"G|"Reb"F2C|"Lab"C2"Fam"C|"Do"C2B|"Fam"!rit!A2"Do"G|"Fam"HF2z|]
w:Yann, Ka-|ret oc'h|bet gant|Hor Zal-|ver, C'houi|'zo pro-|fet, c'houi|'zo me-|zer.|
